!!!COM:	Josquin des Pres?
**kern	**kern
*part2	*part1
*staff2	*staff1
*clefF4	*clefGv2
*k[]	*k[]
*M2/1	*M2/1
=1-	=1-
[0F	0A
=2	=2
0F_	1.A
.	2B
=3	=3
0F_	2c
.	1d
.	4c
.	4B
=4	=4
0F_	2A
.	2.c
.	4B
.	4A
.	4G
=5	=5
0F_	1F
.	2r
.	2c
=6	=6
0F]	2d
.	1f
.	4e
.	4d
=7	=7
[0E	2.c
.	4d
.	2e
.	2f
=8	=8
0E]	2e
.	1d
.	2c
=9	=9
0D	0d
==	==
*-	*-
